services/time.svg

<svg xmlns="http://www.w3.org/2000/svg" viewBox="0 0 16 16"><title>time</title><g data-name="Layer 1"><g data-name="New Symbol 37"><path d="M8.069.049a7.971 7.971 0 1 1-8.032 7.88A7.972 7.972 0 0 1 8.069.049zm-.057 13.363a5.4 5.4 0 1 0-5.405-5.345 5.384 5.384 0 0 0 5.405 5.345z"/><path d="M10.755 9.82H7.507a.684.684 0 0 1-.684-.684V5.181a1.056 1.056 0 0 1 1.056-1.056H7.9a1.056 1.056 0 0 1 1.056 1.056v2.506h1.8a1.056 1.056 0 0 1 1.056 1.056v.021a1.056 1.056 0 0 1-1.057 1.056z"/></g></g></svg>

<svg xmlns="http://www.w3.org/2000/svg" viewBox="0 0 16 16"><title>time</title><g id="Layer_1" data-name="Layer 1"><g id="New_Symbol_37" data-name="New Symbol 37"><path d="M8.069.049A7.971,7.971,0,1,1,.037,7.929,7.972,7.972,0,0,1,8.069.049ZM8.012,13.412A5.4,5.4,0,1,0,2.607,8.067,5.384,5.384,0,0,0,8.012,13.412Z"/><path d="M10.755,9.82H7.507a.684.684,0,0,1-.684-.684V5.181A1.056,1.056,0,0,1,7.879,4.125H7.9A1.056,1.056,0,0,1,8.956,5.181V7.687h1.8a1.056,1.056,0,0,1,1.056,1.056v.021A1.056,1.056,0,0,1,10.755,9.82Z"/></g></g></svg>
